brandFactory_export/3.Masa/Gimnasio gym_3Masa.svg

<?xml version="1.0" encoding="UTF-8"?>
<svg width="24px" height="24px" viewBox="0 0 24 24" version="1.1" xmlns="http://www.w3.org/2000/svg" xmlns:xlink="http://www.w3.org/1999/xlink">
    <title>3.Masa/Gimnasio gym_3Masa</title>
    <g id="Symbols" stroke="none" stroke-width="1" fill="none" fill-rule="evenodd">
        <g id="3.Masa/Gimnasio-gym_3Masa" fill="#5CB615" fill-rule="nonzero">
            <path d="M0,7.3512605 C0,6.46386555 0.685714286,5.74789916 1.53613445,5.74789916 L1.8487395,5.74789916 L1.8487395,18.0168067 L1.53613445,18.0168067 C0.68907563,18.0168067 0,17.297479 0,16.4134454 L0,7.3512605 Z M22.087395,5.74453782 C22.9344538,5.74453782 23.6235294,6.46386555 23.6235294,7.34789916 L23.6235294,16.4067227 C23.6235294,17.2941176 22.9344538,18.010084 22.087395,18.010084 L21.7983193,18.010084 L21.7983193,5.74117647 L22.087395,5.74117647 L22.087395,5.74453782 Z M7.25378151,5.61008403 L7.25378151,8.98823529 L7.27058824,8.98823529 L7.27058824,14.7731092 L7.25378151,14.7731092 L7.25378151,18.1512605 C7.25378151,19.0386555 6.56806723,19.7546218 5.71764706,19.7546218 L4.4,19.7546218 C3.5697479,19.7546218 2.89411765,19.0621849 2.87058824,18.2016807 L2.87058824,5.56302521 C2.89411765,4.69915966 3.5697479,4.00671096 4.4,4.00671096 L5.71764706,4.00671096 C6.56470588,4.00336134 7.25378151,4.72268908 7.25378151,5.61008403 Z M8.29243697,14.302521 L8.29243697,9.45546218 L15.3647059,9.45546218 L15.3647059,14.302521 L8.29243697,14.302521 Z M20.7731092,5.61008403 L20.7731092,5.74453782 L20.7764706,5.74453782 L20.7764706,18.0134454 L20.7731092,18.0134454 L20.7731092,18.1478992 C20.7731092,19.0352941 20.0840336,19.7512605 19.2369748,19.7512605 L17.9193277,19.7512605 C17.0722689,19.7512605 16.3831933,19.0319328 16.3831933,18.1478992 L16.3831933,5.61008403 C16.3831933,4.72268908 17.0689076,4.00671096 17.9193277,4.00671096 L19.2369748,4.00671096 C20.087395,4.00336134 20.7731092,4.72268908 20.7731092,5.61008403 Z" id="Gimnasio-gym_3Masa"></path>
        </g>
    </g>
</svg>

<svg width="24" height="24" viewBox="0 0 24 24" xmlns="http://www.w3.org/2000/svg"><path d="M0 7.351c0-.887.686-1.603 1.536-1.603h.313v12.269h-.313C.69 18.017 0 17.297 0 16.413V7.351zm22.087-1.606c.847 0 1.537.719 1.537 1.603v9.059c0 .887-.69 1.603-1.537 1.603h-.289V5.741h.29v.004zM7.254 5.61v3.378h.017v5.785h-.017v3.378c0 .888-.686 1.604-1.536 1.604H4.4c-.83 0-1.506-.693-1.53-1.553V5.563c.024-.864.7-1.556 1.53-1.556h1.318c.847-.004 1.536.716 1.536 1.603zm1.038 8.693V9.455h7.073v4.848H8.292zM20.773 5.61v.135h.003v12.268h-.003v.135c0 .887-.689 1.603-1.536 1.603h-1.318c-.847 0-1.536-.72-1.536-1.603V5.61c0-.887.686-1.603 1.536-1.603h1.318c.85-.004 1.536.716 1.536 1.603z" fill="#5CB615" fill-rule="nonzero"/></svg>
